build/finance/JPYSolid.svg

<svg xmlns="http://www.w3.org/2000/svg" fill="none" viewBox="0 0 24 24" focusable="false"><path d="M0 0H24V24H0z"/><path fill="#74767B" fill-rule="evenodd" d="M3 12C3 7.02944 7.02944 3 12 3C16.9706 3 21 7.02944 21 12C21 16.9706 16.9706 21 12 21C7.02944 21 3 16.9706 3 12ZM8.08664 7.59968C8.36368 7.37139 8.77334 7.41091 9.00163 7.68795L12 11.3266L14.9984 7.68795C15.2267 7.41091 15.6363 7.37139 15.9134 7.59968C16.1904 7.82797 16.2299 8.23763 16.0016 8.51467L12.8412 12.35L14.3489 12.35C14.7079 12.35 14.9989 12.641 14.9989 13C14.9989 13.359 14.7079 13.65 14.3489 13.65L12.65 13.65L12.65 14.6771L14.3489 14.6771C14.7079 14.6771 14.9989 14.9682 14.9989 15.3271C14.9989 15.6861 14.7079 15.9771 14.3489 15.9771L12.65 15.9771L12.65 16.8813C12.65 17.2403 12.359 17.5313 12 17.5313C11.641 17.5313 11.35 17.2403 11.35 16.8813L11.35 15.9771L9.65112 15.9771C9.29213 15.9771 9.00112 15.6861 9.00112 15.3271C9.00112 14.9682 9.29213 14.6771 9.65112 14.6771L11.35 14.6771L11.35 13.65L9.65112 13.65C9.29213 13.65 9.00112 13.359 9.00112 13C9.00112 12.641 9.29213 12.35 9.65112 12.35L11.1588 12.35L7.99837 8.51467C7.77008 8.23763 7.8096 7.82797 8.08664 7.59968Z"/></svg>

<svg xmlns="http://www.w3.org/2000/svg" fill="none" viewBox="0 0 24 24" focusable="false"><path fill="#74767B" fill-rule="evenodd" d="M3 12c0-4.98 4.02-9 9-9 4.97 0 9 4.02 9 9a9 9 0 0 1-9 9c-4.98 0-9-4.03-9-9m5.08-4.41a.67.67 0 0 1 .92.09l3 3.64 2.99-3.64a.67.67 0 0 1 .92-.09c.28.23.31.64.09.92l-3.16 3.84h1.5c.36 0 .65.29.65.65 0 .35-.29.65-.65.65h-1.69v1.02h1.69c.36 0 .65.29.65.65s-.29.65-.65.65h-1.69v.91c0 .36-.3.65-.65.65-.36 0-.65-.29-.65-.65v-.91h-1.7c-.36 0-.65-.29-.65-.65s.29-.65.65-.65h1.7v-1.02h-1.7c-.36 0-.65-.3-.65-.65 0-.36.29-.65.65-.65h1.5L7.99 8.51a.66.66 0 0 1 .09-.92"/></svg>
